icon-svg/pedastal-fan.svg

<svg xmlns="http://www.w3.org/2000/svg" fill="#44739e" viewBox="0 0 24 24"><path d="m12.151 11.729.184-.318v-.924l-.717 1.242zm.174-.321-.18.311h-.511l.691-1.2zm-.88.228v-.019l.7-1.215H11.8l-.352.61v-.02.644zm.01-.622.348-.6h.327l-.675 1.169zm.879-.527h.001v.943-.963l-.001.001zm-.187-.086h.011v.001h-.011zm-.361-.0017.0005-.0009.0095.0055-.0005.0009zm-.52.0007v1.342a.172.172 0 0 0 .172.172h.9a.172.172 0 0 0 .172-.172v-1.348a.172.172 0 0 0-.172-.171h-.9a.172.172 0 0 0-.172.177m.169.614.01-.016V10.4h.341l.006-.009h.372l-.006.009h.177v.066l.009-.017v.963l-.009.017-.179.309H11.6l.734-1.271V10.4h-.176l-.713 1.234v.093-.092l-.01.016zm.351-.612h-.341v.59zm-.23 1.778a.253.253 0 1 0 .253.253.251.251 0 0 0-.253-.253m0 .326a.072.072 0 0 1-.061-.033.065.065 0 0 1-.013-.041.074.074 0 1 1 .147 0 .074.074 0 0 1-.072.074zm.074-.073h-.147a.07.07 0 0 0 .013.04.071.071 0 0 0 .06.033.074.074 0 0 0 .074-.073m.601-.253a.253.253 0 1 0 .252.253.252.252 0 0 0-.252-.253m.074.253a.074.074 0 0 1-.148 0 .074.074 0 0 1 .148 0m-.074.073a.075.075 0 0 0 .074-.073h-.148a.074.074 0 0 0 .074.073m2.626-7.116-.295-.9-.009-.024a.19.19 0 0 0-.107-.1.187.187 0 0 0-.143.008l-1.856.881.011.009a.82.82 0 0 1 .251.588A.87.87 0 0 1 12.7 6v.014l2.019-.379a.188.188 0 0 0 .127-.088l.009-.015a.186.186 0 0 0 .002-.142m-.026.149a.18.18 0 0 1-.121.084L12.705 6a.7.7 0 0 0 .013-.146.816.816 0 0 0-.254-.595l1.843-.874a.177.177 0 0 1 .237.084l.009.022.295.9a.178.178 0 0 1-.018.146ZM11.1 6a.8.8 0 0 1-.014-.144.82.82 0 0 1 .254-.587l.011-.01-1.861-.884a.193.193 0 0 0-.156 0 .185.185 0 0 0-.1.114l-.295.9-.006.024a.186.186 0 0 0 .15.218l2.017.379Zm-2.018-.377a.178.178 0 0 1-.143-.207l.006-.023.295-.9a.174.174 0 0 1 .1-.109c.014-.006.029 0 .044 0a.14.14 0 0 0-.04.008.168.168 0 0 0-.093.1l-.295.9-.005.021a.168.168 0 0 0 .134.2l1.99.372a.86.86 0 0 1-.011-.134.835.835 0 0 1 .249-.59l-1.83-.869a.15.15 0 0 0-.043-.009c.016 0 .033-.007.048 0l1.842.874a.817.817 0 0 0-.256.593.8.8 0 0 0 .011.15Zm2.428-.488a.809.809 0 0 1 .77 0l.012.007.264-2.037v-.024a.188.188 0 0 0-.188-.188h-.975a.187.187 0 0 0-.161.211l.268 2.038Zm-.11-2.23h.974a.178.178 0 0 1 .178.178v.022l-.262 2.023a.825.825 0 0 0-.778 0L11.244 3.1a.177.177 0 0 1 .156-.195m1.15 2.946a.654.654 0 0 0-.65-.651.655.655 0 0 0 0 1.31.655.655 0 0 0 .65-.659m-.65.649a.646.646 0 1 1 .646-.647.645.645 0 0 1-.646.647m1.216 2.048c-.009 0-.016-.01-.025-.012.009.002.015.011.025.012m-.481-2.355-.006.013a.816.816 0 0 1-.623.453h-.014l.984 1.8.013.021a.18.18 0 0 0 .1.052.173.173 0 0 1-.089-.054l-.013-.02-.976-1.79a.825.825 0 0 0 .63-.458l1.4 1.482a.177.177 0 0 1-.007.252l-.017.014-.769.559a.178.178 0 0 1-.129.031c.009 0 .015.013.025.013a.19.19 0 0 0 .11-.036l.769-.559.018-.015a.19.19 0 0 0 .059-.131.193.193 0 0 0-.051-.135Zm-1.471.013-.007-.013-1.41 1.492-.015.015a.19.19 0 0 0-.034.14.184.184 0 0 0 .075.123l.769.559.02.013a.19.19 0 0 0 .09.023.2.2 0 0 0 .053-.008.186.186 0 0 0 .112-.09l.983-1.8h-.014a.813.813 0 0 1-.622-.454m-.356 2.252a.178.178 0 0 1-.241.071l-.02-.012-.768-.559a.178.178 0 0 1-.039-.249l.014-.017 1.4-1.482a.821.821 0 0 0 .63.458zm3.216-.521a.164.164 0 0 0 .053-.118.167.167 0 0 0-.046-.12L12.64 6.227a.83.83 0 0 1-.617.449l.97 1.778.012.018a.167.167 0 0 0 .234.037l.769-.558Zm.52-3.444-.009-.021a.167.167 0 0 0-.224-.079l-1.83.868a.827.827 0 0 1 .247.592.77.77 0 0 1-.011.134l1.992-.374a.173.173 0 0 0 .106-.067l.007-.012a.168.168 0 0 0 .016-.138Zm-3.392 1.734L9.761 7.7l-.013.016a.169.169 0 0 0 .036.236l.769.558.019.012a.167.167 0 0 0 .128.013.162.162 0 0 0 .1-.08l.97-1.778a.834.834 0 0 1-.618-.45m.748-1.209a.83.83 0 0 1 .381.093l.256-2.011v-.019a.168.168 0 0 0-.168-.168H11.4a.168.168 0 0 0-.143.189l.26 2.008a.83.83 0 0 1 .383-.092m.444.382a.63.63 0 0 0-.449-.186.636.636 0 0 0-.449 1.086.63.63 0 0 0 .449.186.636.636 0 0 0 .449-1.086m2.898 1.413c.013-.044.034-.085.045-.13-.011.045-.032.086-.045.13m.141-.798a3.48 3.48 0 0 0-.206-1.356 3.5 3.5 0 0 1 .206 1.356m0 0v.019Zm-.002.019a3.44 3.44 0 0 1-.094.649 3.4 3.4 0 0 0 .094-.649m-.494-1.985a3.47 3.47 0 0 1 .278.584 3.5 3.5 0 0 0-.278-.584m-.079-.106c.024.036.056.068.079.106-.023-.038-.054-.07-.079-.106m.357.69c0 .009.009.017.012.026-.003-.009-.008-.017-.012-.026m-3.737 5.041a3.7 3.7 0 0 1-.334-.055v3.555a.5.5 0 0 0 .5.5h.6a.5.5 0 0 0 .5-.5V9.619c-.11.023-.221.041-.334.055a3.94 3.94 0 0 1-.932 0m1.265-.052v3.552a.5.5 0 0 1-.5.5h-.6a.5.5 0 0 1-.5-.5V9.622c.1.021.2.039.332.054a3.84 3.84 0 0 0 .934 0c.118-.014.23-.032.334-.054m2.429 11.171H12.4v-4.982a.136.136 0 0 0-.136-.136h-.009v-1.734a.769.769 0 0 0 .712-.768V9.554a3.854 3.854 0 1 0-4.773-2.632 3.9 3.9 0 0 0 .241.607A3.6 3.6 0 0 1 8.068 5.6 3.82 3.82 0 0 0 8.2 6.921a3.86 3.86 0 0 0 .243.622l-.007-.014c.016.034.033.067.051.1l-.007-.011a3.8 3.8 0 0 0 .337.546v.006a3.87 3.87 0 0 0 .756.756h.007a3.8 3.8 0 0 0 .545.337l-.013-.006.1.052-.016-.008a3.9 3.9 0 0 0 .623.243v3.624a.77.77 0 0 0 .71.764v1.748h-.013a.131.131 0 0 0-.131.131V20.8H8.668a.623.623 0 0 0-.621.62v.135A.445.445 0 0 0 8.49 22h6.81a.443.443 0 0 0 .442-.442v-.134a.621.621 0 0 0-.62-.621h-2.728v-4.992a.131.131 0 0 0-.131-.131h-.014v-1.743a.77.77 0 0 0 .71-.764V9.55a3.82 3.82 0 0 0 1.19-.6 3.82 3.82 0 0 1-1.189.6v3.621a.769.769 0 0 1-.713.766v1.738h.012a.134.134 0 0 1 .133.134V20.8h2.726a.625.625 0 0 1 .623.624v.134A.447.447 0 0 1 15.3 22H8.49a.447.447 0 0 1-.445-.445v-.135a.625.625 0 0 1 .623-.623H11.4v-4.985a.134.134 0 0 1 .133-.133h.011V13.94a.771.771 0 0 1-.713-.766V9.552a3.83 3.83 0 0 1-.606-.237 3.83 3.83 0 0 0 .6.239v3.62a.773.773 0 0 0 .713.768v1.734h-.009a.136.136 0 0 0-.136.136v4.981H8.668a.629.629 0 0 0-.626.625v.135A.45.45 0 0 0 8.49 22h6.81a.448.448 0 0 0 .447-.447v-.134a.627.627 0 0 0-.625-.626m-.287-12.456a3.9 3.9 0 0 0 .729-1.321 3.87 3.87 0 0 1-.729 1.321m.743-1.383a3.9 3.9 0 0 0 .142-.666 3.83 3.83 0 0 1-.142.666m.145-.843a3.83 3.83 0 0 0-.131-1.325A3.83 3.83 0 0 0 15 3.6a3.8 3.8 0 0 1 .593 1.183 3.81 3.81 0 0 1 .13 1.328M14.9 3.447a3.75 3.75 0 0 0-.47-.482 3.7 3.7 0 0 1 .47.482m-.52-.533a3.91 3.91 0 0 0-1.32-.729 3.88 3.88 0 0 1 1.319.729Zm-1.392-.745a3.8 3.8 0 0 0-.656-.14 3.9 3.9 0 0 1 .655.14zm-.014.356a3.6 3.6 0 0 1 .363.151 3.5 3.5 0 0 0-.455-.173c.029.009.061.012.091.022zm-2.146-.37a3.8 3.8 0 0 1 1.32-.129 3.662 3.662 0 0 0-2.505.723 3.8 3.8 0 0 1 1.184-.594zm1.815.291c-.082-.018-.163-.04-.246-.052.082.012.163.034.245.052Zm-.623-.081h-.246c.041 0 .081-.01.122-.01s.081.008.123.01zm-.624.029c-.083.012-.164.034-.246.052.081-.018.162-.04.25-.052Zm-.486.106a3.6 3.6 0 0 0-.457.173 3.7 3.7 0 0 1 .364-.151c.031-.006.062-.01.093-.022m-1.421.35a3.83 3.83 0 0 0-.483.47 3.83 3.83 0 0 1 .483-.47m-.533.52a3.91 3.91 0 0 0-.729 1.32 3.88 3.88 0 0 1 .729-1.32m-.885 2.048a3.9 3.9 0 0 1 .14-.654 3.8 3.8 0 0 0-.14.654m3.917 10.262H11.8v-1.7h.184zm.71-2.506a.505.505 0 0 1-.5.5h-.6a.505.505 0 0 1-.5-.5V9.615c.1.022.2.04.333.056a3.94 3.94 0 0 0 .934 0c.116-.015.228-.033.333-.056zm-.378-3.852a3.48 3.48 0 0 1-.849 0A3.5 3.5 0 0 1 8.4 5.851a3.456 3.456 0 0 1 1.954-3.133 3.45 3.45 0 0 0-.528.319 3.494 3.494 0 1 0 4.883 4.886 3.45 3.45 0 0 0 .534-1.11 3.449 3.449 0 0 1-2.923 2.5 3.492 3.492 0 0 1-2.494-6.274 3.6 3.6 0 0 1 .537-.325c.016-.008.034-.013.05-.021a3.5 3.5 0 0 1 .5-.19c.075-.022.151-.037.226-.054s.176-.042.266-.055.167-.014.252-.02a3.55 3.55 0 0 1 .484 0c.084.006.168.008.251.02s.177.035.266.055.151.032.225.054a3.44 3.44 0 0 1 .5.191c.016.007.032.012.048.02a3.4 3.4 0 0 1 1.381 1.229 3.46 3.46 0 0 0-.842-.906 3.5 3.5 0 0 0-.528-.319A3.43 3.43 0 0 1 14.9 4.064a3.5 3.5 0 0 1-2.58 5.258m2.469-.94a3.77 3.77 0 0 1-.487.475 3.77 3.77 0 0 0 .487-.475m-5.967-.211a3.63 3.63 0 0 0 .756.756 3.81 3.81 0 0 1-.756-.756m-.005-.008a3.77 3.77 0 0 1-.331-.533 3.85 3.85 0 0 0 .331.533m1.301 1.1a4 4 0 0 1-.531-.33 3.9 3.9 0 0 0 .531.33m1.867 4.723h-.179v1.692h.179zm0 1.689h-.174v-1.687h.174z"/></svg>

<?xml version="1.0" encoding="UTF-8"?>
<svg width="24px" fill="#44739e" height="24px" viewBox="0 0 24 24" version="1.1" xmlns="http://www.w3.org/2000/svg" xmlns:xlink="http://www.w3.org/1999/xlink">
            <path d="m 12.151,11.729 0.184,-0.318 v -0.924 l -0.717,1.242 z m 0.174,-0.321 -0.18,0.311 h -0.511 l 0.691,-1.2 z m -0.88,0.228 v -0.019 l 0.7,-1.215 H 11.8 l -0.352,0.61 v -0.02 0 0.644 z m 0.01,-0.622 0.348,-0.6 h 0.327 l -0.675,1.169 z m 0.879,-0.527 h 0.001 v 0.58 0.363 0 -0.963 l -0.001,10e-4 z m -0.187,-0.086 h 0.011 v 10e-4 h -0.011 z m -0.361049,-0.0017 5.04e-4,-8.63e-4 0.0095,0.0055 -5.03e-4,8.64e-4 z M 11.266,10.4 v 1.342 a 0.172,0.172 0 0 0 0.172,0.172 h 0.9 a 0.172,0.172 0 0 0 0.172,-0.172 v -1.348 a 0.172,0.172 0 0 0 -0.172,-0.171 h -0.9 A 0.172,0.172 0 0 0 11.266,10.4 Z m 0.169,0.614 0.01,-0.016 V 10.4 h 0.341 l 0.006,-0.009 h 0.372 L 12.158,10.4 h 0.177 v 0.066 l 0.009,-0.017 v 0.963 l -0.009,0.017 v 0 l -0.179,0.309 H 11.6 l 0.734,-1.271 V 10.4 h -0.176 l -0.713,1.234 v 0.093 0 -0.092 l -0.01,0.016 z m 0.351,-0.612 h -0.341 v 0.59 z m -0.23,1.778 a 0.253,0.253 0 1 0 0.253,0.253 0.251,0.251 0 0 0 -0.253,-0.253 z m 0,0.326 a 0.072,0.072 0 0 1 -0.061,-0.033 0.065,0.065 0 0 1 -0.013,-0.041 0.074,0.074 0 1 1 0.147,0 v 0 a 0.074,0.074 0 0 1 -0.072,0.074 z m 0.074,-0.073 h -0.147 a 0.068,0.068 0 0 0 0.013,0.04 0.071,0.071 0 0 0 0.06,0.033 0.074,0.074 0 0 0 0.074,-0.073 z m 0.601,-0.253 a 0.253,0.253 0 1 0 0.252,0.253 0.252,0.252 0 0 0 -0.252,-0.253 z m 0.074,0.253 a 0.074,0.074 0 0 1 -0.148,0 v 0 a 0.074,0.074 0 0 1 0.148,0 z m -0.074,0.073 a 0.075,0.075 0 0 0 0.074,-0.073 h -0.148 a 0.074,0.074 0 0 0 0.074,0.073 z M 14.857,5.39 14.562,4.49 14.553,4.466 a 0.191,0.191 0 0 0 -0.107,-0.1 0.187,0.187 0 0 0 -0.143,0.008 l -1.856,0.881 0.011,0.009 A 0.82,0.82 0 0 1 12.709,5.852 0.866,0.866 0 0 1 12.7,6 v 0.014 l 2.019,-0.379 a 0.188,0.188 0 0 0 0.127,-0.088 l 0.009,-0.015 v 0 A 0.186,0.186 0 0 0 14.857,5.39 Z M 14.831,5.539 A 0.179,0.179 0 0 1 14.71,5.623 L 12.705,6 A 0.715,0.715 0 0 0 12.718,5.854 0.816,0.816 0 0 0 12.464,5.259 l 1.843,-0.874 a 0.177,0.177 0 0 1 0.237,0.084 l 0.009,0.022 0.295,0.9 A 0.178,0.178 0 0 1 14.83,5.537 Z M 11.1,6 A 0.781,0.781 0 0 1 11.086,5.856 0.819,0.819 0 0 1 11.34,5.269 L 11.351,5.259 9.49,4.375 a 0.193,0.193 0 0 0 -0.156,0 0.185,0.185 0 0 0 -0.1,0.114 l -0.295,0.9 -0.006,0.024 a 0.186,0.186 0 0 0 0.15,0.218 L 11.1,6.01 Z M 9.082,5.623 A 0.178,0.178 0 0 1 8.939,5.416 L 8.945,5.393 9.24,4.493 a 0.174,0.174 0 0 1 0.1,-0.109 c 0.014,-0.006 0.029,0 0.044,0 a 0.135,0.135 0 0 0 -0.04,0.008 0.168,0.168 0 0 0 -0.093,0.1 l -0.295,0.9 -0.005,0.021 a 0.168,0.168 0 0 0 0.134,0.2 v 0 l 1.99,0.372 A 0.855,0.855 0 0 1 11.064,5.851 0.835,0.835 0 0 1 11.313,5.261 L 9.483,4.392 A 0.15,0.15 0 0 0 9.44,4.383 c 0.016,0 0.033,-0.007 0.048,0 L 11.33,5.257 A 0.817,0.817 0 0 0 11.074,5.85 0.8,0.8 0 0 0 11.085,6 Z M 11.51,5.135 a 0.809,0.809 0 0 1 0.77,0 l 0.012,0.007 0.264,-2.037 V 3.081 A 0.188,0.188 0 0 0 12.368,2.893 h -0.95 -0.025 A 0.187,0.187 0 0 0 11.232,3.104 L 11.5,5.142 Z M 11.4,2.905 h 0.024 0.95 a 0.178,0.178 0 0 1 0.178,0.178 V 3.105 L 12.29,5.128 a 0.825,0.825 0 0 0 -0.778,0 L 11.244,3.1 A 0.177,0.177 0 0 1 11.4,2.905 Z m 1.15,2.946 A 0.654,0.654 0 0 0 11.9,5.2 v 0 a 0.655,0.655 0 0 0 0,1.31 v 0 A 0.655,0.655 0 0 0 12.55,5.851 Z M 11.9,6.5 A 0.646,0.646 0 1 1 12.546,5.853 0.645,0.645 0 0 1 11.9,6.5 Z m 1.216,2.048 c -0.009,0 -0.016,-0.01 -0.025,-0.012 0.009,0.002 0.015,0.011 0.025,0.012 z M 12.635,6.193 12.629,6.206 a 0.816,0.816 0 0 1 -0.623,0.453 h -0.014 l 0.984,1.8 0.013,0.021 a 0.179,0.179 0 0 0 0.1,0.052 A 0.173,0.173 0 0 1 13,8.478 l -0.013,-0.02 -0.976,-1.79 a 0.825,0.825 0 0 0 0.63,-0.458 l 1.4,1.482 a 0.177,0.177 0 0 1 -0.007,0.252 l -0.017,0.014 -0.769,0.559 a 0.178,0.178 0 0 1 -0.129,0.031 c 0.009,0 0.015,0.013 0.025,0.013 a 0.19,0.19 0 0 0 0.11,-0.036 L 14.023,7.966 14.041,7.951 A 0.19,0.19 0 0 0 14.1,7.82 0.193,0.193 0 0 0 14.049,7.685 Z M 11.164,6.206 11.157,6.193 9.747,7.685 9.732,7.7 A 0.189,0.189 0 0 0 9.698,7.84 0.184,0.184 0 0 0 9.773,7.963 l 0.769,0.559 0.02,0.013 a 0.191,0.191 0 0 0 0.09,0.023 0.2,0.2 0 0 0 0.053,-0.008 0.186,0.186 0 0 0 0.112,-0.09 L 11.8,6.66 H 11.786 A 0.813,0.813 0 0 1 11.164,6.206 Z M 10.808,8.458 A 0.178,0.178 0 0 1 10.567,8.529 L 10.547,8.517 9.779,7.958 A 0.178,0.178 0 0 1 9.74,7.709 l 0.014,-0.017 1.4,-1.482 a 0.821,0.821 0 0 0 0.63,0.458 z M 14.024,7.937 A 0.164,0.164 0 0 0 14.077,7.819 0.167,0.167 0 0 0 14.031,7.699 L 12.64,6.227 a 0.83,0.83 0 0 1 -0.617,0.449 l 0.97,1.778 0.012,0.018 a 0.167,0.167 0 0 0 0.234,0.037 L 14.008,7.951 Z M 14.544,4.493 14.535,4.472 A 0.167,0.167 0 0 0 14.311,4.393 l -1.83,0.868 a 0.827,0.827 0 0 1 0.247,0.592 0.765,0.765 0 0 1 -0.011,0.134 L 14.709,5.613 A 0.173,0.173 0 0 0 14.815,5.546 L 14.822,5.534 A 0.168,0.168 0 0 0 14.838,5.396 Z M 11.152,6.227 9.761,7.7 9.748,7.716 a 0.169,0.169 0 0 0 0.036,0.236 l 0.769,0.558 0.019,0.012 A 0.167,0.167 0 0 0 10.7,8.535 0.162,0.162 0 0 0 10.8,8.455 L 11.77,6.677 A 0.834,0.834 0 0 1 11.152,6.227 Z M 11.9,5.018 a 0.828,0.828 0 0 1 0.381,0.093 L 12.537,3.1 V 3.081 A 0.168,0.168 0 0 0 12.369,2.913 H 11.4 a 0.168,0.168 0 0 0 -0.143,0.189 v 0 l 0.26,2.008 A 0.828,0.828 0 0 1 11.9,5.018 Z M 12.344,5.4 A 0.63,0.63 0 0 0 11.895,5.214 v 0 A 0.636,0.636 0 0 0 11.446,6.3 0.63,0.63 0 0 0 11.895,6.486 0.636,0.636 0 0 0 12.344,5.4 Z m 2.898,1.413 c 0.013,-0.044 0.034,-0.085 0.045,-0.13 -0.011,0.045 -0.032,0.086 -0.045,0.13 z m 0.141,-0.798 a 3.479,3.479 0 0 0 -0.206,-1.356 3.505,3.505 0 0 1 0.206,1.356 z m 0,0 V 6.034 Z M 15.381,6.034 A 3.443,3.443 0 0 1 15.287,6.683 3.41,3.41 0 0 0 15.381,6.034 Z M 14.887,4.049 A 3.473,3.473 0 0 1 15.165,4.633 3.506,3.506 0 0 0 14.887,4.049 Z M 14.808,3.943 c 0.024,0.036 0.056,0.068 0.079,0.106 -0.023,-0.038 -0.054,-0.07 -0.079,-0.106 z m 0.357,0.69 c 0,0.009 0.009,0.017 0.012,0.026 C 15.174,4.65 15.169,4.642 15.165,4.633 Z M 11.428,9.674 C 11.315,9.66 11.204,9.643 11.094,9.619 v 3.555 a 0.5,0.5 0 0 0 0.5,0.5 h 0.6 a 0.5,0.5 0 0 0 0.5,-0.5 V 9.619 C 12.584,9.642 12.473,9.66 12.36,9.674 a 3.943,3.943 0 0 1 -0.932,0 z m 1.265,-0.052 v 3.552 a 0.5,0.5 0 0 1 -0.5,0.5 h -0.6 a 0.5,0.5 0 0 1 -0.5,-0.5 V 9.622 c 0.1,0.021 0.2,0.039 0.332,0.054 a 3.84,3.84 0 0 0 0.934,0 c 0.118,-0.014 0.23,-0.032 0.334,-0.054 z m 2.429,11.171 H 12.4 v -4.982 a 0.136,0.136 0 0 0 -0.136,-0.136 h -0.009 v -1.734 a 0.769,0.769 0 0 0 0.712,-0.768 V 9.554 A 3.854,3.854 0 1 0 8.194,6.922 3.874,3.874 0 0 0 8.435,7.529 3.6,3.6 0 0 1 8.068,5.6 3.816,3.816 0 0 0 8.2,6.921 3.86,3.86 0 0 0 8.443,7.543 L 8.436,7.529 c 0.016,0.034 0.033,0.067 0.051,0.1 L 8.48,7.618 a 3.815,3.815 0 0 0 0.337,0.546 v 0 0.006 0 0 a 3.867,3.867 0 0 0 0.756,0.756 v 0 0 H 9.58 v 0 a 3.8,3.8 0 0 0 0.545,0.337 l -0.013,-0.006 0.1,0.052 -0.016,-0.008 a 3.907,3.907 0 0 0 0.623,0.243 v 0 3.624 a 0.77,0.77 0 0 0 0.71,0.764 v 0 1.748 h -0.013 a 0.131,0.131 0 0 0 -0.131,0.131 V 20.8 H 8.668 a 0.623,0.623 0 0 0 -0.621,0.62 v 0.135 A 0.445,0.445 0 0 0 8.49,22 h 6.81 a 0.443,0.443 0 0 0 0.442,-0.442 v -0.134 a 0.621,0.621 0 0 0 -0.62,-0.621 H 12.394 V 15.811 A 0.131,0.131 0 0 0 12.263,15.68 h -0.014 v -1.743 0 a 0.77,0.77 0 0 0 0.71,-0.764 v -3.623 0 a 3.82,3.82 0 0 0 1.19,-0.6 3.819,3.819 0 0 1 -1.189,0.6 v 3.621 a 0.769,0.769 0 0 1 -0.713,0.766 v 1.738 h 0.012 a 0.134,0.134 0 0 1 0.133,0.134 V 20.8 h 2.726 a 0.625,0.625 0 0 1 0.623,0.624 v 0.134 A 0.447,0.447 0 0 1 15.3,22 H 8.49 A 0.447,0.447 0 0 1 8.045,21.555 V 21.42 A 0.625,0.625 0 0 1 8.668,20.797 H 11.4 v -4.985 0 a 0.134,0.134 0 0 1 0.133,-0.133 h 0.011 V 13.94 A 0.771,0.771 0 0 1 10.831,13.174 V 9.552 a 3.829,3.829 0 0 1 -0.606,-0.237 3.832,3.832 0 0 0 0.6,0.239 v 3.62 a 0.773,0.773 0 0 0 0.713,0.768 v 1.734 h -0.009 a 0.136,0.136 0 0 0 -0.136,0.136 v 4.981 H 8.668 a 0.629,0.629 0 0 0 -0.626,0.625 v 0.135 A 0.45,0.45 0 0 0 8.49,22 h 6.81 a 0.448,0.448 0 0 0 0.447,-0.447 V 21.419 A 0.627,0.627 0 0 0 15.122,20.793 Z M 14.835,8.337 A 3.9,3.9 0 0 0 15.564,7.016 3.872,3.872 0 0 1 14.835,8.337 Z M 15.578,6.954 A 3.89,3.89 0 0 0 15.72,6.288 3.83,3.83 0 0 1 15.578,6.954 Z M 15.723,6.111 A 3.826,3.826 0 0 0 15.592,4.786 3.834,3.834 0 0 0 15,3.6 a 3.8,3.8 0 0 1 0.593,1.183 3.812,3.812 0 0 1 0.13,1.328 z M 14.9,3.447 A 3.754,3.754 0 0 0 14.43,2.965 3.693,3.693 0 0 1 14.9,3.447 Z M 14.38,2.914 A 3.91,3.91 0 0 0 13.06,2.185 3.877,3.877 0 0 1 14.379,2.914 Z M 12.988,2.169 a 3.815,3.815 0 0 0 -0.656,-0.14 3.926,3.926 0 0 1 0.655,0.14 z m -0.014,0.356 a 3.6,3.6 0 0 1 0.363,0.151 3.484,3.484 0 0 0 -0.455,-0.173 c 0.029,0.009 0.061,0.012 0.091,0.022 z m -2.146,-0.37 a 3.8,3.8 0 0 1 1.32,-0.129 3.662,3.662 0 0 0 -2.505,0.723 3.8,3.8 0 0 1 1.184,-0.594 z m 1.815,0.291 C 12.561,2.428 12.48,2.406 12.397,2.394 12.479,2.406 12.56,2.428 12.642,2.446 Z M 12.02,2.365 q -0.123,0 -0.246,0 c 0.041,0 0.081,-0.01 0.122,-0.01 0.041,0 0.081,0.008 0.123,0.01 z M 11.396,2.394 C 11.313,2.406 11.232,2.428 11.15,2.446 11.231,2.428 11.312,2.406 11.4,2.394 Z M 10.91,2.5 A 3.6,3.6 0 0 0 10.453,2.673 3.72,3.72 0 0 1 10.817,2.522 C 10.848,2.516 10.879,2.512 10.91,2.5 Z M 9.489,2.85 A 3.827,3.827 0 0 0 9.006,3.32 3.833,3.833 0 0 1 9.489,2.85 Z M 8.956,3.37 A 3.91,3.91 0 0 0 8.227,4.69 3.877,3.877 0 0 1 8.956,3.37 Z M 8.071,5.418 A 3.9,3.9 0 0 1 8.211,4.764 3.793,3.793 0 0 0 8.071,5.418 Z M 11.988,15.68 H 11.8 v -1.7 h 0.184 z m 0.71,-2.506 a 0.505,0.505 0 0 1 -0.5,0.5 h -0.6 a 0.505,0.505 0 0 1 -0.5,-0.5 v -3.559 0 c 0.1,0.022 0.2,0.04 0.333,0.056 a 3.943,3.943 0 0 0 0.934,0 c 0.116,-0.015 0.228,-0.033 0.333,-0.056 v 0 z M 12.32,9.322 a 3.478,3.478 0 0 1 -0.849,0 A 3.5,3.5 0 0 1 8.4,5.851 3.456,3.456 0 0 1 10.354,2.718 3.448,3.448 0 0 0 9.826,3.037 3.494,3.494 0 1 0 14.709,7.923 3.446,3.446 0 0 0 15.243,6.813 3.449,3.449 0 0 1 12.32,9.313 3.492,3.492 0 0 1 9.826,3.039 3.588,3.588 0 0 1 10.363,2.714 c 0.016,-0.008 0.034,-0.013 0.05,-0.021 a 3.528,3.528 0 0 1 0.5,-0.19 c 0.075,-0.022 0.151,-0.037 0.226,-0.054 0.075,-0.017 0.176,-0.042 0.266,-0.055 0.09,-0.013 0.167,-0.014 0.252,-0.02 a 3.553,3.553 0 0 1 0.484,0 c 0.084,0.006 0.168,0.008 0.251,0.02 0.083,0.012 0.177,0.035 0.266,0.055 0.089,0.02 0.151,0.032 0.225,0.054 a 3.438,3.438 0 0 1 0.5,0.191 c 0.016,0.007 0.032,0.012 0.048,0.02 A 3.4,3.4 0 0 1 14.812,3.943 3.457,3.457 0 0 0 13.97,3.037 3.5,3.5 0 0 0 13.442,2.718 3.431,3.431 0 0 1 14.9,4.064 3.5,3.5 0 0 1 12.32,9.322 Z m 2.469,-0.94 A 3.771,3.771 0 0 1 14.302,8.857 3.768,3.768 0 0 0 14.789,8.382 Z M 8.822,8.171 A 3.628,3.628 0 0 0 9.578,8.927 3.814,3.814 0 0 1 8.822,8.171 Z M 8.817,8.163 A 3.77,3.77 0 0 1 8.486,7.63 3.851,3.851 0 0 0 8.817,8.163 Z m 1.301,1.1 a 4,4 0 0 1 -0.531,-0.33 3.921,3.921 0 0 0 0.531,0.33 z m 1.867,4.723 h -0.179 v 1.692 h 0.179 z m 0,1.689 h -0.174 v -1.687 h 0.174 z"/>

</svg>
